X:1
T: Katherine-Street
N:
C:
S:
A:
O:
R:
M:6/8
K:Em
I:speed 150
%W: A1
% voice 1 (1 lines, 34 notes)
K:Em
M:6/8
L:1/16
e4 B2 B3 g f2 g6g4 f2 e3 f g2 f3 g e2 ^d3 e f2 B3 ^c d2 |e4 B2 B4 A2 G4 F2 G3 A B2 c4 c2 B4 e2 ^d12 |
%W: A2
% voice 1 (1 lines, 34 notes)
e4 B2 B3 g f2 g6g4 f2 e3 f g2 f3 g e2 ^d3 e f2 B3 ^c d2 |e4 B2 B4 A2 G4 F2 G3 A B2 c4 c2 B4 e2 ^d12 |
%W: B1
% voice 1 (1 lines, 41 notes)
g3 f e2 e3 f g2 g2 B2 B2 B3 c d2 d2 A2 A2 A3 B c2 B2 G4G4 g2 |g2 B2 B2 A2 f2 A2 G4 F2 G2 e2 G2 F4 f2 g2 G2 F2 E2 e4e6 |
%W: B2
% voice 1 (1 lines, 41 notes)
g3 f e2 e3 f g2 g2 B2 B2 B3 c d2 d2 A2 A2 A3 B c2 B2 G4G4 g2 |g2 B2 B2 A2 f2 A2 G4 F2 G2 e2 G2 F4 f2 g2 G2 F2 E2 e4e6 ||
